img/save.svg

<svg fill="#ffffff" height="800" viewBox="0 0 24 24" width="800" xmlns="http://www.w3.org/2000/svg">
    <path d="m21 20v-11.586a1 1 0 0 0 -.293-.707l-4.414-4.414a1 1 0 0 0 -.707-.293h-11.586a1 1 0 0 0 -1 1v16a1 1 0 0 0 1 1h16a1 1 0 0 0 1-1zm-12-12h4a1 1 0 0 1 0 2h-4a1 1 0 0 1 0-2zm7 11h-8v-4a1 1 0 0 1 1-1h6a1 1 0 0 1 1 1z"/>
</svg>

<?xml version="1.0" encoding="utf-8"?><!-- Uploaded to: SVG Repo, www.svgrepo.com, Generator: SVG Repo Mixer Tools -->
<svg fill="#000000" width="800px" height="800px" viewBox="0 0 24 24" xmlns="http://www.w3.org/2000/svg">
    <path d="M21,20V8.414a1,1,0,0,0-.293-.707L16.293,3.293A1,1,0,0,0,15.586,3H4A1,1,0,0,0,3,4V20a1,1,0,0,0,1,1H20A1,1,0,0,0,21,20ZM9,8h4a1,1,0,0,1,0,2H9A1,1,0,0,1,9,8Zm7,11H8V15a1,1,0,0,1,1-1h6a1,1,0,0,1,1,1Z"/>
</svg>
